Projects/Procedural-Worlds/LutGeneration/SavedLut_{DF8410D3-AE9D-4D8B-85E9-14ACD0525484}.3dl
0 146 292 438 584 730 876 1023
1059 0 952
965 0 1359
1029 0 1736
1491 0 2131
1815 0 2585
1841 0 3070
2798 0 3593
3827 0 4095
1553 0 1268
1491 0 1574
1363 0 1834
1545 0 2149
1820 0 2587
1842 0 3070
2798 0 3593
3827 0 4095
1975 0 1664
1965 0 1775
1911 0 2014
1807 0 2252
1857 0 2608
1856 0 3070
2799 0 3593
3827 0 4095
1724 2037 0
1722 2037 0
1711 2035 1649
1695 2025 2128
1710 1960 2579
1777 0 3069
2804 0 3593
3828 0 4095
0 2521 0
0 2521 0
0 2521 0
0 2520 1841
0 2514 2537
0 2472 3058
2818 0 3593
3832 0 4095
0 3169 0
0 3169 0
0 3169 0
0 3169 0
0 3169 0
0 3167 2999
2859 3142 3585
3858 0 4095
0 3929 0
0 3929 0
0 3929 0
0 3929 0
0 3929 0
0 3928 0
2925 3926 3405
4007 3892 4095
4095 4095 0
4095 4095 0
4095 4095 0
4095 4095 0
4095 4095 0
4095 4095 0
4095 4095 0
4095 4095 0
1359 0 771
1341 0 1303
1331 0 1737
1550 0 2132
1822 0 2585
1845 0 3070
2798 0 3593
3827 0 4095
1619 0 1113
1592 0 1485
1508 0 1821
1595 0 2149
1827 0 2588
1846 0 3070
2799 0 3593
3827 0 4095
1982 0 1636
1974 0 1752
1926 0 2000
1825 0 2250
1863 0 2608
1860 0 3070
2799 0 3593
3827 0 4095
1736 2036 0
1734 2036 0
1724 2034 1649
1708 2024 2128
1719 1959 2579
1782 0 3069
2804 0 3593
3828 0 4095
0 2521 0
0 2521 0
0 2521 0
0 2520 1841
0 2514 2537
0 2471 3058
2818 0 3593
3832 0 4095
0 3169 0
0 3169 0
0 3169 0
0 3169 0
0 3169 0
0 3167 2999
2860 3142 3585
3858 0 4095
0 3929 0
0 3929 0
0 3929 0
0 3929 0
0 3929 0
0 3928 0
2925 3926 3405
4007 3892 4095
4095 4095 0
4095 4095 0
4095 4095 0
4095 4095 0
4095 4095 0
4095 4095 0
4095 4095 0
4095 4095 0
1786 0 0
1784 0 1238
1774 0 1740
1787 0 2137
1875 0 2586
1878 0 3070
2800 0 3593
3827 0 4095
1838 0 337
1835 0 1316
1818 0 1777
1807 0 2150
1878 0 2588
1880 0 3070
2801 0 3593
3827 0 4095
2024 0 1483
2021 0 1630
1999 0 1927
1929 0 2236
1908 0 2608
1892 0 3070
2801 0 3593
3827 0 4095
1822 2027 0
1821 2027 0
1812 2026 1646
1796 2016 2128
1784 1953 2579
1824 0 3069
2806 0 3593
3828 0 4095
0 2520 0
0 2520 0
0 2520 0
0 2519 1840
0 2514 2537
0 2471 3058
2820 0 3593
3832 0 4095
0 3169 0
0 3169 0
0 3169 0
0 3169 0
0 3169 0
0 3167 2999
2862 3142 3585
3858 0 4095
0 3929 0
0 3929 0
0 3929 0
0 3929 0
0 3929 0
0 3928 0
2929 3926 3405
4007 3892 4095
4095 4095 0
4095 4095 0
4095 4095 0
4095 4095 0
4095 4095 0
4095 4095 0
4095 4095 0
4095 4095 0
2140 0 0
2140 0 0
2135 0 1730
2124 0 2149
2100 0 2591
2069 0 3069
2818 0 3593
3829 0 4095
2145 0 0
2145 0 0
2141 0 1738
2129 0 2154
2102 0 2593
2070 0 3068
2818 0 3593
3829 0 4095
2190 0 0
2189 0 1215
2184 0 1801
2166 0 2191
2110 0 2595
2076 0 3068
2819 0 3593
3829 0 4095
2095 1972 0
2095 1972 0
2091 1971 1603
2080 1963 2121
2052 1908 2576
2045 0 3067
2823 0 3593
3829 0 4095
1586 2516 0
1586 2516 0
1592 2516 0
1505 2515 1836
1037 2509 2537
1383 2467 3056
2836 0 3593
3833 0 4095
0 3169 0
0 3169 0
0 3169 0
0 3169 0
0 3169 0
0 3166 2999
2879 3141 3585
3859 0 4095
0 3929 0
0 3929 0
0 3929 0
0 3929 0
0 3929 0
0 3928 0
2959 3926 3405
4008 3892 4095
4095 4095 0
4095 4095 0
4095 4095 0
4095 4095 0
4095 4095 0
4095 4095 0
4095 4095 0
4095 4095 0
2532 0 0
2532 0 0
2532 0 0
2530 0 2102
2524 0 2570
2545 0 3055
2939 0 3593
3840 0 4095
2532 0 0
2532 0 0
2532 0 0
2530 0 2102
2524 0 2570
2545 0 3055
2939 0 3593
3840 0 4095
2531 0 0
2531 0 0
2531 0 0
2529 0 2099
2524 0 2569
2544 0 3055
2940 0 3593
3840 0 4095
2527 1611 0
2527 1611 0
2527 1611 0
2525 1589 2077
2522 1421 2566
2543 0 3054
2942 0 3593
3840 0 4095
2495 2482 0
2495 2482 0
2495 2482 0
2493 2481 1721
2489 2475 2535
2530 2437 3049
2953 0 3592
3844 0 4095
0 3168 0
0 3168 0
0 3168 0
0 3168 0
0 3167 0
1508 3165 2997
2998 3138 3585
3870 0 4095
0 3928 0
0 3928 0
0 3928 0
0 3928 0
0 3928 0
0 3928 0
3137 3926 3404
4017 3891 4095
4095 4095 0
4095 4095 0
4095 4095 0
4095 4095 0
4095 4095 0
4095 4095 0
4095 4095 0
4095 4095 0
3254 0 0
3254 0 0
3254 0 0
3254 0 0
3255 0 2462
3267 0 3048
3379 0 3591
3927 0 4095
3254 0 0
3254 0 0
3254 0 0
3254 0 0
3255 0 2462
3267 0 3048
3379 0 3591
3927 0 4095
3254 0 0
3254 0 0
3254 0 0
3254 0 0
3255 0 2462
3267 0 3048
3380 0 3591
3927 0 4095
3255 0 0
3255 0 0
3255 0 0
3255 0 0
3256 0 2456
3268 0 3048
3380 0 3591
3928 0 4095
3260 1220 0
3260 1219 0
3260 1216 0
3260 1180 0
3261 0 2401
3274 0 3042
3386 0 3590
3931 0 4095
3292 3143 0
3292 3143 0
3292 3143 0
3292 3143 0
3294 3143 0
3308 3139 2972
3425 3099 3582
3953 0 4095
3435 3925 0
3435 3925 0
3435 3925 0
3435 3925 0
3438 3925 0
3460 3925 0
3601 3922 3393
4085 3883 4095
4095 4095 0
4095 4095 0
4095 4095 0
4095 4095 0
4095 4095 0
4095 4095 0
4095 4095 0
4095 4095 0
4095 0 0
4095 0 0
4095 0 0
4095 0 0
4095 0 0
4095 0 0
4095 0 3540
4095 0 4095
4095 0 0
4095 0 0
4095 0 0
4095 0 0
4095 0 0
4095 0 0
4095 0 3540
4095 0 4095
4095 0 0
4095 0 0
4095 0 0
4095 0 0
4095 0 0
4095 0 0
4095 0 3540
4095 0 4095
4095 0 0
4095 0 0
4095 0 0
4095 0 0
4095 0 0
4095 0 0
4095 0 3540
4095 0 4095
4095 0 0
4095 0 0
4095 0 0
4095 0 0
4095 0 0
4095 0 0
4095 0 3539
4095 0 4095
4095 0 0
4095 0 0
4095 0 0
4095 0 0
4095 0 0
4095 0 0
4095 0 3525
4095 0 4095
4095 3859 0
4095 3859 0
4095 3859 0
4095 3859 0
4095 3859 0
4095 3858 0
4095 3850 3185
4095 3747 4095
4095 4095 0
4095 4095 0
4095 4095 0
4095 4095 0
4095 4095 0
4095 4095 0
4095 4095 0
4095 4095 0
4095 0 0
4095 0 0
4095 0 0
4095 0 0
4095 0 0
4095 0 0
4095 0 0
4095 0 0
4095 0 0
4095 0 0
4095 0 0
4095 0 0
4095 0 0
4095 0 0
4095 0 0
4095 0 0
4095 0 0
4095 0 0
4095 0 0
4095 0 0
4095 0 0
4095 0 0
4095 0 0
4095 0 0
4095 0 0
4095 0 0
4095 0 0
4095 0 0
4095 0 0
4095 0 0
4095 0 0
4095 0 0
4095 0 0
4095 0 0
4095 0 0
4095 0 0
4095 0 0
4095 0 0
4095 0 0
4095 0 0
4095 0 0
4095 0 0
4095 0 0
4095 0 0
4095 0 0
4095 0 0
4095 0 0
4095 0 0
4095 0 0
4095 0 0
4095 0 0
4095 0 0
4095 0 0
4095 0 0
4095 0 0
4095 0 0
4095 4095 0
4095 4095 0
4095 4095 0
4095 4095 0
4095 4095 0
4095 4095 0
4095 4095 0
4095 4095 0
