Projects/Procedural-Worlds/LutGeneration/SavedLut_{8F5019CE-E468-4B2E-82B7-35BA3ED62BF0}.3dl
0 341 682 1023
1503 0 1356
1362 0 2073
1432 0 3050
2798 0 4095
1230 1805 459
1182 1789 1940
1184 1571 3040
2811 0 4095
0 3051 0
0 3050 0
0 3048 2974
2855 2932 4095
0 4095 0
0 4095 0
0 4095 0
0 4095 3973
2002 0 1026
1972 0 2033
1853 0 3045
2856 0 4095
1864 1709 0
1842 1696 1934
1777 1492 3037
2867 0 4095
0 3052 0
0 3052 0
0 3050 2972
2911 2929 4095
0 4095 0
0 4095 0
0 4095 0
1881 4095 3973
3122 0 0
3121 0 1665
3128 0 3008
3454 0 4095
3122 0 0
3122 0 1593
3129 0 3004
3457 0 4095
3138 3031 0
3139 3031 0
3152 3024 2943
3495 2860 4095
0 4095 0
0 4095 0
0 4095 0
3726 4095 3966
4095 0 0
4095 0 0
4095 0 0
4095 0 4095
4095 0 0
4095 0 0
4095 0 0
4095 0 4095
4095 0 0
4095 0 0
4095 0 0
4095 0 4095
4095 4095 0
4095 4095 0
4095 4095 0
4095 4095 3727
