Projects/Procedural-Worlds/LutGeneration/SavedLut_{8F5019CE-E468-4B2E-82B7-35BA3ED62BF0}.3dl
0 16 32 48 64 81 97 113 129 146 162 178 194 211 227 243 259 276 292 308 324 341 357 373 389 405 422 438 454 470 487 503 519 535 552 568 584 600 617 633 649 665 682 698 714 730 746 763 779 795 811 828 844 860 876 893 909 925 941 958 974 990 1006 1023 
1503 0 1356
1498 0 1392
1492 0 1427
1486 0 1463
1479 0 1497
1472 0 1532
1464 0 1566
1456 0 1599
1448 0 1632
1439 0 1665
1430 0 1698
1421 0 1730
1412 0 1762
1403 0 1795
1395 0 1828
1387 0 1861
1380 0 1895
1374 0 1929
1369 0 1964
1365 0 1999
1363 0 2036
1362 0 2073
1363 0 2111
1365 0 2151
1368 0 2191
1373 0 2233
1379 0 2275
1386 0 2319
1393 0 2364
1401 0 2409
1409 0 2456
1417 0 2504
1424 0 2553
1431 0 2602
1436 0 2653
1441 0 2704
1445 0 2756
1445 0 2804
1443 0 2850
1441 0 2898
1439 0 2948
1436 0 2998
1432 0 3050
1428 0 3103
1424 0 3157
1420 0 3211
1417 0 3266
1417 0 3322
1421 0 3379
1429 0 3435
1440 0 3491
1453 0 3547
1478 0 3601
1525 0 3656
1599 0 3710
1700 0 3764
1824 0 3817
1966 0 3872
2120 0 3931
2270 0 3998
2412 0 4063
2545 0 4095
2674 0 4095
2798 0 4095
1535 0 1380
1530 0 1415
1524 0 1450
1518 0 1485
1511 0 1519
1504 0 1553
1496 0 1587
1488 0 1620
1480 0 1653
1471 0 1685
1462 0 1717
1452 0 1749
1443 0 1781
1433 0 1813
1424 0 1846
1416 0 1878
1408 0 1911
1401 0 1945
1394 0 1979
1389 0 2014
1386 0 2049
1383 0 2086
1383 0 2123
1383 0 2162
1385 0 2201
1388 0 2242
1393 0 2284
1398 0 2327
1404 0 2371
1411 0 2416
1418 0 2462
1425 0 2509
1431 0 2557
1437 0 2606
1442 0 2656
1446 0 2707
1449 0 2759
1448 0 2804
1446 0 2850
1444 0 2898
1441 0 2947
1438 0 2998
1435 0 3050
1430 0 3103
1426 0 3156
1422 0 3211
1419 0 3266
1419 0 3322
1423 0 3379
1431 0 3435
1443 0 3491
1455 0 3547
1480 0 3601
1527 0 3656
1601 0 3710
1702 0 3764
1825 0 3817
1967 0 3872
2121 0 3931
2270 0 3998
2412 0 4063
2546 0 4095
2674 0 4095
2798 0 4095
1567 0 1404
1562 0 1439
1557 0 1473
1551 0 1508
1544 0 1541
1537 0 1575
1529 0 1608
1521 0 1641
1512 0 1673
1503 0 1705
1494 0 1737
1484 0 1769
1475 0 1801
1465 0 1833
1455 0 1865
1446 0 1897
1437 0 1929
1429 0 1962
1421 0 1996
1415 0 2029
1410 0 2064
1406 0 2100
1404 0 2136
1403 0 2174
1403 0 2213
1405 0 2252
1408 0 2293
1412 0 2335
1417 0 2378
1422 0 2423
1428 0 2468
1434 0 2515
1439 0 2562
1444 0 2611
1449 0 2660
1452 0 2710
1453 0 2758
1451 0 2803
1449 0 2850
1447 0 2898
1444 0 2947
1441 0 2998
1437 0 3050
1433 0 3103
1428 0 3156
1424 0 3211
1422 0 3266
1422 0 3322
1426 0 3379
1434 0 3435
1445 0 3491
1457 0 3547
1482 0 3601
1529 0 3656
1603 0 3710
1703 0 3764
1827 0 3817
1968 0 3872
2122 0 3931
2271 0 3998
2412 0 4063
2546 0 4095
2674 0 4095
2798 0 4095
1600 0 1429
1595 0 1463
1589 0 1497
1584 0 1530
1577 0 1564
1570 0 1597
1563 0 1630
1555 0 1662
1546 0 1695
1537 0 1727
1527 0 1758
1518 0 1790
1508 0 1822
1497 0 1853
1487 0 1885
1477 0 1916
1468 0 1948
1458 0 1980
1450 0 2013
1443 0 2046
1436 0 2080
1431 0 2115
1427 0 2151
1425 0 2187
1424 0 2225
1424 0 2264
1425 0 2304
1428 0 2345
1431 0 2387
1435 0 2431
1439 0 2475
1444 0 2521
1448 0 2568
1452 0 2616
1456 0 2665
1458 0 2714
1456 0 2757
1454 0 2802
1452 0 2849
1450 0 2897
1447 0 2947
1444 0 2998
1440 0 3049
1436 0 3102
1431 0 3156
1427 0 3211
1425 0 3266
1425 0 3322
1428 0 3379
1436 0 3435
1448 0 3491
1460 0 3547
1485 0 3601
1532 0 3656
1605 0 3710
1705 0 3764
1828 0 3817
1969 0 3872
2122 0 3931
2272 0 3998
2413 0 4063
2546 0 4095
2674 0 4095
2799 0 4095
1633 0 1454
1628 0 1487
1623 0 1520
1617 0 1554
1611 0 1587
1604 0 1619
1597 0 1652
1589 0 1684
1580 0 1716
1571 0 1748
1562 0 1780
1552 0 1811
1541 0 1843
1531 0 1874
1520 0 1905
1510 0 1937
1499 0 1968
1490 0 2000
1480 0 2032
1472 0 2064
1464 0 2097
1458 0 2131
1452 0 2166
1448 0 2202
1446 0 2238
1444 0 2276
1444 0 2315
1445 0 2356
1446 0 2397
1449 0 2440
1452 0 2483
1455 0 2528
1459 0 2575
1462 0 2622
1464 0 2670
1463 0 2713
1460 0 2756
1458 0 2802
1456 0 2848
1454 0 2897
1451 0 2946
1448 0 2997
1444 0 3049
1439 0 3102
1435 0 3156
1431 0 3211
1428 0 3266
1428 0 3322
1432 0 3379
1440 0 3435
1451 0 3491
1463 0 3546
1488 0 3601
1535 0 3656
1608 0 3710
1707 0 3764
1830 0 3817
1970 0 3872
2124 0 3931
2272 0 3998
2414 0 4063
2547 0 4095
2675 0 4095
2799 0 4095
1665 0 1479
1661 0 1512
1656 0 1544
1650 0 1577
1644 0 1609
1638 0 1642
1631 0 1674
1623 0 1706
1615 0 1738
1606 0 1770
1596 0 1802
1586 0 1833
1576 0 1865
1565 0 1896
1554 0 1927
1544 0 1958
1533 0 1989
1522 0 2020
1512 0 2051
1502 0 2083
1494 0 2116
1486 0 2149
1479 0 2183
1474 0 2217
1469 0 2253
1466 0 2290
1464 0 2328
1463 0 2367
1463 0 2408
1464 0 2450
1466 0 2492
1468 0 2537
1470 0 2582
1472 0 2628
1470 0 2669
1467 0 2711
1465 0 2755
1463 0 2801
1460 0 2848
1458 0 2896
1455 0 2946
1452 0 2997
1448 0 3049
1443 0 3102
1439 0 3156
1435 0 3211
1432 0 3266
1432 0 3322
1436 0 3378
1444 0 3435
1455 0 3491
1467 0 3546
1492 0 3601
1538 0 3656
1611 0 3710
1710 0 3764
1832 0 3817
1972 0 3872
2125 0 3931
2273 0 3998
2414 0 4063
2547 0 4095
2675 0 4095
2799 0 4095
1699 0 1505
1694 0 1536
1689 0 1568
1684 0 1600
1679 0 1632
1672 0 1664
1665 0 1696
1658 0 1728
1650 0 1760
1641 0 1792
1632 0 1824
1622 0 1855
1611 0 1887
1601 0 1918
1590 0 1949
1578 0 1980
1567 0 2010
1556 0 2041
1545 0 2072
1534 0 2103
1525 0 2135
1516 0 2167
1508 0 2201
1501 0 2234
1495 0 2269
1490 0 2305
1486 0 2342
1484 0 2380
1482 0 2420
1482 0 2460
1482 0 2502
1482 0 2546
1481 0 2587
1478 0 2626
1475 0 2667
1473 0 2709
1470 0 2754
1468 0 2800
1465 0 2847
1463 0 2896
1460 0 2946
1456 0 2997
1452 0 3049
1448 0 3102
1443 0 3156
1439 0 3211
1437 0 3266
1436 0 3322
1440 0 3378
1448 0 3435
1459 0 3491
1471 0 3546
1496 0 3601
1542 0 3656
1614 0 3710
1712 0 3764
1834 0 3817
1974 0 3872
2126 0 3931
2274 0 3998
2415 0 4063
2548 0 4095
2676 0 4095
2800 0 4095
1732 0 1530
1728 0 1561
1723 0 1592
1718 0 1624
1713 0 1655
1707 0 1687
1700 0 1719
1693 0 1751
1685 0 1782
1676 0 1814
1667 0 1846
1658 0 1878
1647 0 1909
1637 0 1940
1625 0 1971
1614 0 2002
1602 0 2032
1591 0 2063
1579 0 2094
1568 0 2124
1557 0 2156
1547 0 2187
1538 0 2219
1529 0 2253
1522 0 2286
1515 0 2321
1510 0 2357
1506 0 2395
1503 0 2433
1501 0 2473
1496 0 2509
1491 0 2545
1487 0 2583
1484 0 2623
1481 0 2664
1479 0 2708
1476 0 2752
1474 0 2799
1471 0 2846
1468 0 2895
1465 0 2945
1462 0 2996
1457 0 3049
1453 0 3102
1448 0 3156
1444 0 3210
1442 0 3266
1442 0 3322
1445 0 3378
1453 0 3435
1464 0 3491
1476 0 3546
1500 0 3601
1546 0 3656
1618 0 3710
1715 0 3764
1837 0 3817
1976 0 3872
2128 0 3931
2276 0 3998
2416 0 4063
2549 0 4095
2676 0 4095
2800 0 4095
1766 0 1556
1762 0 1586
1758 0 1616
1753 0 1647
1748 0 1678
1742 0 1710
1735 0 1741
1728 0 1773
1721 0 1805
1712 0 1837
1704 0 1869
1694 0 1900
1684 0 1932
1673 0 1963
1662 0 1994
1650 0 2024
1638 0 2055
1626 0 2085
1614 0 2116
1602 0 2146
1591 0 2177
1580 0 2208
1569 0 2240
1560 0 2272
1551 0 2305
1543 0 2339
1534 0 2371
1524 0 2401
1516 0 2433
1509 0 2467
1503 0 2502
1498 0 2540
1494 0 2579
1491 0 2619
1488 0 2662
1486 0 2705
1483 0 2751
1480 0 2797
1477 0 2845
1475 0 2894
1471 0 2945
1468 0 2996
1463 0 3048
1459 0 3101
1454 0 3155
1450 0 3210
1447 0 3266
1447 0 3322
1451 0 3378
1458 0 3435
1470 0 3491
1482 0 3546
1505 0 3601
1551 0 3656
1622 0 3710
1719 0 3764
1839 0 3817
1978 0 3872
2129 0 3931
2277 0 3998
2417 0 4063
2549 0 4095
2677 0 4095
2801 0 4095
1800 0 1582
1797 0 1611
1792 0 1641
1788 0 1671
1783 0 1701
1777 0 1732
1771 0 1764
1765 0 1795
1757 0 1827
1749 0 1859
1740 0 1891
1731 0 1923
1721 0 1954
1708 0 1983
1695 0 2011
1681 0 2039
1667 0 2066
1652 0 2093
1637 0 2120
1623 0 2148
1609 0 2175
1595 0 2203
1582 0 2232
1569 0 2261
1557 0 2291
1547 0 2322
1537 0 2354
1529 0 2387
1522 0 2422
1515 0 2458
1510 0 2495
1506 0 2534
1502 0 2574
1499 0 2616
1496 0 2659
1493 0 2703
1490 0 2749
1487 0 2796
1485 0 2844
1482 0 2894
1478 0 2944
1474 0 2995
1470 0 3048
1465 0 3101
1461 0 3155
1457 0 3210
1454 0 3266
1454 0 3322
1458 0 3378
1465 0 3435
1476 0 3491
1487 0 3546
1511 0 3601
1556 0 3656
1626 0 3710
1723 0 3764
1843 0 3817
1980 0 3872
2131 0 3931
2278 0 3998
2418 0 4063
2550 0 4095
2678 0 4095
2801 0 4095
1696 415 1460
1693 407 1491
1690 398 1523
1687 389 1555
1683 377 1588
1679 364 1622
1675 350 1656
1670 333 1689
1665 313 1724
1659 291 1758
1653 265 1793
1646 235 1827
1638 199 1862
1630 158 1896
1622 109 1931
1613 49 1965
1603 0 1998
1594 0 2032
1584 0 2065
1574 0 2099
1564 0 2132
1554 0 2165
1544 0 2199
1535 0 2232
1526 0 2266
1518 0 2301
1511 0 2336
1505 0 2373
1500 0 2410
1495 0 2448
1491 0 2487
1488 0 2527
1485 0 2569
1483 0 2612
1480 0 2656
1478 0 2701
1476 0 2747
1474 0 2794
1471 0 2843
1469 0 2893
1466 0 2943
1463 0 2995
1460 0 3048
1456 0 3101
1452 0 3155
1449 0 3210
1448 0 3266
1450 0 3322
1455 0 3378
1464 0 3435
1477 0 3491
1490 0 3546
1517 0 3601
1562 0 3656
1632 0 3710
1727 0 3764
1846 0 3817
1983 0 3872
2134 0 3931
2280 0 3998
2420 0 4063
2551 0 4095
2678 0 4095
2802 0 4095
1599 1010 1353
1597 1008 1387
1595 1005 1422
1593 1002 1458
1590 998 1494
1587 994 1530
1585 989 1567
1581 983 1604
1578 977 1641
1574 970 1679
1570 962 1716
1565 953 1754
1560 943 1792
1555 932 1830
1549 920 1868
1543 905 1906
1537 890 1944
1530 872 1982
1523 852 2019
1516 831 2057
1509 806 2094
1502 779 2131
1496 749 2168
1489 715 2206
1483 676 2243
1478 632 2281
1473 581 2319
1468 522 2358
1465 449 2398
1462 359 2438
1459 239 2479
1457 64 2520
1456 0 2563
1454 0 2607
1453 0 2652
1452 0 2698
1451 0 2745
1449 0 2793
1448 0 2842
1447 0 2892
1445 0 2943
1443 0 2994
1440 0 3047
1437 0 3101
1434 0 3155
1433 0 3210
1433 0 3266
1435 0 3322
1441 0 3378
1452 0 3435
1465 0 3491
1480 0 3546
1510 0 3601
1560 0 3656
1635 0 3710
1733 0 3764
1851 0 3817
1987 0 3872
2136 0 3931
2282 0 3998
2421 0 4063
2553 0 4095
2679 0 4095
2803 0 4095
1527 1201 1269
1526 1200 1307
1524 1198 1344
1522 1196 1383
1521 1194 1421
1518 1191 1460
1516 1188 1500
1514 1185 1539
1511 1181 1579
1508 1177 1618
1505 1172 1658
1502 1167 1698
1499 1160 1738
1495 1153 1778
1491 1146 1819
1487 1137 1859
1482 1127 1900
1477 1116 1940
1473 1104 1981
1468 1091 2021
1463 1076 2061
1458 1059 2101
1453 1041 2142
1449 1021 2182
1445 998 2222
1441 974 2263
1438 946 2303
1435 916 2344
1433 881 2386
1431 842 2428
1430 798 2470
1429 745 2513
1428 682 2557
1428 604 2602
1427 502 2648
1427 359 2695
1426 128 2742
1425 0 2791
1425 0 2840
1425 0 2891
1424 0 2942
1422 0 2994
1420 0 3047
1418 0 3100
1416 0 3155
1416 0 3210
1417 0 3266
1420 0 3322
1428 0 3378
1439 0 3435
1454 0 3491
1470 0 3546
1501 0 3601
1554 0 3656
1631 0 3710
1732 0 3764
1854 0 3817
1991 0 3872
2139 0 3931
2285 0 3998
2423 0 4063
2554 0 4095
2681 0 4095
2804 0 4095
1471 1317 1198
1469 1316 1238
1468 1315 1279
1467 1314 1320
1465 1312 1361
1463 1310 1403
1461 1308 1444
1459 1306 1486
1457 1303 1527
1455 1301 1569
1453 1297 1611
1450 1293 1652
1448 1289 1694
1445 1284 1736
1442 1279 1778
1439 1273 1820
1436 1266 1863
1432 1258 1905
1429 1250 1948
1425 1240 1990
1422 1229 2033
1419 1218 2075
1415 1205 2118
1412 1190 2160
1410 1174 2203
1407 1157 2245
1405 1137 2288
1403 1116 2331
1402 1092 2374
1401 1066 2418
1401 1036 2462
1401 1003 2506
1401 964 2552
1401 920 2597
1402 867 2644
1402 803 2692
1402 722 2740
1402 614 2789
1402 456 2839
1402 182 2889
1402 0 2941
1401 0 2993
1400 0 3046
1399 0 3100
1398 0 3155
1398 0 3210
1400 0 3266
1405 0 3322
1413 0 3378
1426 0 3435
1441 0 3490
1459 0 3546
1492 0 3601
1547 0 3655
1626 0 3710
1729 0 3764
1853 0 3817
1993 0 3872
2143 0 3931
2287 0 3998
2425 0 4063
2556 0 4095
2682 0 4095
2805 0 4095
1425 1403 1132
1424 1403 1177
1422 1402 1221
1421 1401 1265
