Projects/Procedural-Worlds/LutGeneration/SavedLut_{DF8410D3-AE9D-4D8B-85E9-14ACD0525484}.3dl
0 341 682 1023
1059 0 952
1163 0 1866
1832 0 2903
3827 0 4095
2085 0 1802
2021 0 2153
1865 0 2902
3827 0 4095
0 2937 0
0 2937 0
0 2937 2849
3843 0 4095
4095 4095 0
4095 4095 0
4095 4095 0
4095 4095 0
1915 0 0
1903 0 1877
1907 0 2902
3828 0 4095
2128 0 1623
2098 0 2052
1932 0 2901
3828 0 4095
0 2938 0
0 2938 0
0 2937 2849
3844 0 4095
4095 4095 0
4095 4095 0
4095 4095 0
4095 4095 0
2985 0 0
2985 0 0
2994 0 2877
3879 0 4095
2985 0 0
2985 0 0
2994 0 2877
3879 0 4095
3007 2920 0
3007 2920 0
3018 2915 2831
3893 0 4095
4095 4095 0
4095 4095 0
4095 4095 0
4095 4095 0
4095 0 0
4095 0 0
4095 0 0
4095 0 0
4095 0 0
4095 0 0
4095 0 0
4095 0 0
4095 0 0
4095 0 0
4095 0 0
4095 0 0
4095 4095 0
4095 4095 0
4095 4095 0
4095 4095 0
