Projects/Procedural-Worlds/LutGeneration/SavedLut_{8F5019CE-E468-4B2E-82B7-35BA3ED62BF0}.3dl
0 146 292 438 584 730 876 1023
1503 0 1356
1439 0 1665
1369 0 1964
1386 0 2319
1445 0 2756
1420 0 3211
1599 0 3710
2798 0 4095
1800 0 1582
1749 0 1859
1637 0 2120
1529 0 2387
1490 0 2749
1457 0 3210
1626 0 3710
2801 0 4095
1302 1649 862
1288 1644 1395
1273 1630 1835
1264 1586 2274
1274 1465 2725
1294 962 3209
1597 0 3709
2809 0 4095
944 2122 0
891 2121 877
821 2118 1679
707 2110 2201
556 2083 2698
497 1989 3202
1461 1478 3704
2817 0 4095
0 2636 0
0 2636 0
0 2635 535
0 2633 2057
0 2626 2649
0 2604 3179
0 2538 3707
2838 2142 4095
0 3286 0
0 3286 0
0 3286 0
0 3286 0
0 3285 2420
0 3281 3118
0 3268 3683
2860 3211 4095
0 3989 0
0 3989 0
0 3989 0
0 3989 0
0 3989 0
0 3988 2424
0 3985 3568
2747 3973 4095
0 4095 0
0 4095 0
0 4095 0
0 4095 0
0 4095 0
0 4095 0
0 4095 0
0 4095 3973
1666 0 1220
1640 0 1586
1595 0 1938
1560 0 2317
1552 0 2756
1507 0 3211
1666 0 3710
2806 0 4095
1847 0 1432
1815 0 1735
1743 0 2052
1648 0 2369
1584 0 2746
1538 0 3210
1689 0 3710
2809 0 4095
1486 1622 839
1475 1618 1391
1458 1604 1832
1434 1564 2271
1414 1446 2724
1408 932 3208
1664 0 3708
2817 0 4095
1202 2115 0
1171 2114 870
1132 2112 1679
1072 2104 2201
991 2077 2698
945 1984 3202
1553 1469 3704
2825 0 4095
0 2635 0
0 2635 0
0 2634 518
0 2632 2057
0 2625 2649
0 2603 3178
0 2537 3706
2845 2140 4095
0 3286 0
0 3286 0
0 3286 0
0 3286 0
0 3285 2419
0 3281 3118
0 3268 3683
2868 3211 4095
0 3989 0
0 3989 0
0 3989 0
0 3989 0
0 3989 0
0 3988 2423
0 3985 3568
2761 3973 4095
0 4095 0
0 4095 0
0 4095 0
0 4095 0
0 4095 0
0 4095 0
0 4095 0
0 4095 3973
1901 0 1087
1892 0 1515
1872 0 1905
1836 0 2314
1786 0 2746
1728 0 3209
1850 0 3708
2835 0 4095
1955 0 1187
1944 0 1566
1916 0 1941
1861 0 2327
1794 0 2738
1743 0 3208
1866 0 3707
2838 0 4095
1784 1547 712
1777 1543 1370
1764 1532 1821
1739 1497 2264
1702 1386 2721
1673 810 3207
1849 0 3706
2845 0 4095
1611 2094 0
1597 2093 833
1580 2091 1679
1553 2084 2202
1513 2059 2697
1482 1967 3200
1785 1435 3702
2853 0 4095
0 2631 0
0 2631 0
0 2630 446
0 2628 2057
0 2622 2648
0 2600 3177
1417 2534 3704
2873 2133 4095
0 3286 0
0 3286 0
0 3286 0
0 3285 0
0 3284 2417
0 3281 3118
0 3267 3683
2897 3210 4095
0 3989 0
0 3989 0
0 3989 0
0 3989 0
0 3989 0
0 3988 2420
0 3985 3568
2809 3972 4095
0 4095 0
0 4095 0
0 4095 0
0 4095 0
0 4095 0
0 4095 0
0 4095 0
0 4095 3973
2223 0 470
2218 0 1418
2208 0 1856
2187 0 2281
2149 0 2725
2122 0 3203
2218 0 3700
2929 0 4095
2208 0 170
2203 0 1389
2195 0 1839
2176 0 2272
2144 0 2721
2122 0 3203
2225 0 3700
2931 0 4095
2164 1359 0
2159 1354 1270
2152 1343 1791
2140 1308 2247
2117 1183 2712
2105 0 3201
2219 0 3699
2936 0 4095
2095 2035 0
2091 2034 451
2085 2032 1669
2074 2025 2202
2059 2002 2695
2050 1909 3195
2202 1286 3694
2944 0 4095
1812 2620 0
1815 2620 0
1798 2619 0
1775 2617 2055
1744 2610 2647
1751 2590 3174
2135 2526 3702
2962 2104 4095
0 3285 0
0 3285 0
0 3285 0
0 3284 0
0 3283 2409
0 3279 3116
0 3266 3682
2991 3207 4095
0 3989 0
0 3989 0
0 3989 0
0 3989 0
0 3989 0
0 3988 2411
0 3984 3567
2950 3972 4095
0 4095 0
0 4095 0
0 4095 0
0 4095 0
0 4095 0
0 4095 0
0 4095 0
2605 4095 3972
2657 0 0
2657 0 0
2655 0 1726
2653 0 2235
2652 0 2704
2669 0 3187
2768 0 3688
3172 0 4095
2656 0 0
2657 0 0
2654 0 1719
2652 0 2232
2652 0 2703
2669 0 3187
2768 0 3688
3174 0 4095
2655 0 0
2656 0 0
2653 0 1689
2652 0 2224
2652 0 2700
2668 0 3185
2770 0 3688
3176 0 4095
2654 1859 0
2655 1859 0
2653 1855 1557
2651 1845 2192
2650 1811 2690
2661 1672 3179
2775 0 3691
3181 0 4095
2610 2581 0
2611 2581 0
2610 2580 0
2607 2579 2033
2610 2574 2642
2642 2558 3167
2786 2496 3702
3198 1970 4095
2412 3279 0
2413 3279 0
2417 3279 0
2416 3279 0
2426 3278 2379
2493 3274 3110
2726 3259 3680
3232 3196 4095
0 3987 0
0 3987 0
0 3987 0
0 3987 0
0 3987 0
0 3986 2373
1473 3983 3564
3265 3969 4095
0 4095 0
0 4095 0
0 4095 0
0 4095 0
0 4095 0
0 4095 0
0 4095 0
3306 4095 3970
3367 0 0
3367 0 0
3368 0 0
3368 0 2035
3371 0 2650
3388 0 3172
3448 0 3703
3632 0 4095
3368 0 0
3368 0 0
3368 0 0
3368 0 2032
3371 0 2649
3388 0 3172
3448 0 3703
3632 0 4095
3369 0 0
3369 0 0
3370 0 0
3370 0 2019
3373 0 2647
3390 0 3173
3449 0 3703
3633 0 4095
3375 0 0
3375 0 0
3376 0 0
3376 0 1966
3381 0 2640
3398 0 3175
3453 0 3701
3637 0 4095
3395 2462 0
3395 2462 0
3395 2462 0
3395 2459 1633
3398 2449 2596
3411 2419 3163
3463 2290 3696
3650 0 4095
3409 3251 0
3409 3251 0
3410 3251 0
3411 3251 0
3414 3249 2228
3429 3244 3086
3488 3226 3674
3684 3146 4095
3410 3980 0
3410 3980 0
3411 3980 0
3414 3979 0
3421 3979 0
3443 3978 2185
3525 3974 3553
3762 3959 4095
3366 4095 0
3366 4095 0
3368 4095 0
3373 4095 0
3392 4095 0
3450 4095 0
3600 4095 0
3934 4095 3963
4095 0 0
4095 0 0
4095 0 0
4095 0 0
4095 0 2185
4095 0 3084
4095 0 3673
4095 0 4095
4095 0 0
4095 0 0
4095 0 0
4095 0 0
4095 0 2182
4095 0 3084
4095 0 3673
4095 0 4095
4095 0 0
4095 0 0
4095 0 0
4095 0 0
4095 0 2170
4095 0 3082
4095 0 3673
4095 0 4095
4095 0 0
4095 0 0
4095 0 0
4095 0 0
4095 0 2124
4095 0 3076
4095 0 3671
4095 0 4095
4095 0 0
4095 0 0
4095 0 0
4095 0 0
4095 0 1880
4095 0 3053
4095 0 3665
4095 0 4095
4095 2991 0
4095 2990 0
4095 2990 0
4095 2990 0
4095 2986 0
4095 2972 2945
4095 2921 3639
4095 2649 4095
4095 3932 0
4095 3932 0
4095 3932 0
4095 3932 0
4095 3932 0
4095 3930 0
4095 3924 3500
4095 3900 4095
4095 4095 0
4095 4095 0
4095 4095 0
4095 4095 0
4095 4095 0
4095 4095 0
4095 4095 0
4095 4095 3931
4095 0 0
4095 0 0
4095 0 0
4095 0 0
4095 0 0
4095 0 0
4095 0 3414
4095 0 4095
4095 0 0
4095 0 0
4095 0 0
4095 0 0
4095 0 0
4095 0 0
4095 0 3414
4095 0 4095
4095 0 0
4095 0 0
4095 0 0
4095 0 0
4095 0 0
4095 0 0
4095 0 3413
4095 0 4095
4095 0 0
4095 0 0
4095 0 0
4095 0 0
4095 0 0
4095 0 0
4095 0 3409
4095 0 4095
4095 0 0
4095 0 0
4095 0 0
4095 0 0
4095 0 0
4095 0 0
4095 0 3395
4095 0 4095
4095 0 0
4095 0 0
4095 0 0
4095 0 0
4095 0 0
4095 0 0
4095 0 3336
4095 0 4095
4095 2960 0
4095 2960 0
4095 2960 0
4095 2958 0
4095 2952 0
4095 2925 0
4095 2799 2915
4095 0 4095
4095 4095 0
4095 4095 0
4095 4095 0
4095 4095 0
4095 4095 0
4095 4095 0
4095 4095 0
4095 4095 3727
