Projects/Procedural-Worlds/LutGeneration/SavedLut_{DF8410D3-AE9D-4D8B-85E9-14ACD0525484}.3dl
0 16 32 48 64 81 97 113 129 146 162 178 194 211 227 243 259 276 292 308 324 341 357 373 389 405 422 438 454 470 487 503 519 535 552 568 584 600 617 633 649 665 682 698 714 730 746 763 779 795 811 828 844 860 876 893 909 925 941 958 974 990 1006 1023 
1059 0 952
1051 0 1005
1045 0 1054
1037 0 1101
1027 0 1147
1016 0 1192
1004 0 1235
991 0 1277
978 0 1318
965 0 1359
954 0 1399
945 0 1440
940 0 1480
939 0 1522
943 0 1564
954 0 1606
971 0 1649
996 0 1692
1029 0 1736
1068 0 1779
1113 0 1823
1163 0 1866
1216 0 1909
1272 0 1953
1328 0 1996
1384 0 2040
1438 0 2085
1491 0 2131
1542 0 2178
1590 0 2226
1634 0 2275
1676 0 2324
1713 0 2375
1746 0 2426
1775 0 2478
1798 0 2531
1815 0 2585
1828 0 2639
1835 0 2695
1839 0 2748
1838 0 2797
1835 0 2849
1832 0 2903
1829 0 2958
1831 0 3014
1841 0 3070
1855 0 3126
1894 0 3180
1980 0 3235
2109 0 3288
2264 0 3345
2414 0 3411
2550 0 3472
2677 0 3533
2798 0 3593
2916 0 3655
3031 0 3717
3145 0 3779
3258 0 3841
3371 0 3904
3484 0 3967
3598 0 4031
3712 0 4095
3827 0 4095
1110 0 986
1101 0 1036
1094 0 1083
1086 0 1130
1076 0 1175
1065 0 1219
1052 0 1261
1038 0 1301
1023 0 1341
1009 0 1380
996 0 1418
985 0 1457
977 0 1496
973 0 1535
975 0 1575
982 0 1615
996 0 1657
1018 0 1699
1047 0 1741
1083 0 1783
1126 0 1826
1173 0 1869
1224 0 1911
1278 0 1954
1333 0 1997
1387 0 2041
1441 0 2086
1493 0 2132
1543 0 2179
1591 0 2226
1635 0 2275
1677 0 2325
1714 0 2375
1747 0 2426
1775 0 2478
1798 0 2531
1816 0 2585
1828 0 2639
1835 0 2695
1839 0 2748
1838 0 2797
1835 0 2849
1832 0 2903
1829 0 2958
1831 0 3014
1841 0 3070
1855 0 3126
1894 0 3180
1981 0 3235
2109 0 3288
2264 0 3345
2414 0 3411
2550 0 3472
2677 0 3533
2798 0 3593
2916 0 3655
3031 0 3717
3145 0 3779
3258 0 3841
3371 0 3904
3484 0 3967
3598 0 4031
3712 0 4095
3827 0 4095
1162 0 1020
1153 0 1067
1147 0 1114
1138 0 1159
1129 0 1203
1117 0 1246
1104 0 1287
1089 0 1327
1074 0 1365
1058 0 1403
1044 0 1439
1031 0 1476
1020 0 1513
1014 0 1550
1012 0 1588
1016 0 1627
1027 0 1666
1044 0 1706
1070 0 1747
1102 0 1788
1141 0 1830
1185 0 1872
1234 0 1914
1285 0 1956
1339 0 1999
1392 0 2042
1445 0 2087
1496 0 2133
1545 0 2179
1592 0 2227
1636 0 2275
1677 0 2325
1714 0 2375
1747 0 2427
1775 0 2479
1798 0 2531
1816 0 2585
1828 0 2640
1835 0 2695
1839 0 2748
1838 0 2797
1836 0 2849
1832 0 2903
1829 0 2958
1831 0 3014
1841 0 3070
1855 0 3126
1894 0 3180
1981 0 3235
2109 0 3288
2264 0 3345
2414 0 3411
2550 0 3472
2677 0 3533
2798 0 3593
2916 0 3655
3031 0 3717
3145 0 3779
3258 0 3841
3371 0 3904
3484 0 3967
3598 0 4031
3712 0 4095
3827 0 4095
1217 0 1055
1210 0 1098
1201 0 1144
1193 0 1189
1184 0 1232
1172 0 1274
1159 0 1314
1144 0 1353
1129 0 1390
1113 0 1427
1097 0 1462
1082 0 1497
1069 0 1532
1060 0 1567
1055 0 1603
1055 0 1640
1062 0 1677
1075 0 1715
1096 0 1755
1125 0 1794
1160 0 1835
1200 0 1876
1246 0 1917
1295 0 1959
1346 0 2001
1398 0 2044
1449 0 2088
1499 0 2134
1548 0 2180
1594 0 2228
1638 0 2276
1678 0 2325
1715 0 2376
1748 0 2427
1776 0 2479
1799 0 2532
1816 0 2585
1828 0 2640
1835 0 2695
1839 0 2748
1838 0 2797
1836 0 2849
1832 0 2903
1829 0 2958
1831 0 3014
1841 0 3070
1855 0 3126
1895 0 3180
1981 0 3235
2109 0 3288
2264 0 3345
2414 0 3411
2550 0 3472
2677 0 3533
2798 0 3593
2916 0 3655
3031 0 3717
3145 0 3779
3258 0 3841
3371 0 3904
3484 0 3967
3598 0 4031
3712 0 4095
3827 0 4095
1272 0 1089
1266 0 1131
1258 0 1175
1250 0 1218
1241 0 1260
1230 0 1302
1217 0 1341
1203 0 1379
1187 0 1416
1171 0 1451
1154 0 1486
1138 0 1519
1123 0 1553
1111 0 1586
1103 0 1620
1100 0 1654
1102 0 1690
1112 0 1726
1128 0 1764
1152 0 1802
1182 0 1841
1219 0 1881
1261 0 1921
1307 0 1962
1355 0 2004
1405 0 2046
1454 0 2090
1503 0 2135
1551 0 2181
1597 0 2228
1640 0 2277
1680 0 2326
1716 0 2376
1749 0 2427
1776 0 2479
1799 0 2532
1816 0 2585
1828 0 2640
1836 0 2695
1839 0 2748
1838 0 2797
1836 0 2849
1832 0 2903
1830 0 2958
1832 0 3014
1841 0 3070
1855 0 3126
1895 0 3180
1981 0 3235
2109 0 3288
2264 0 3345
2414 0 3411
2550 0 3472
2677 0 3533
2798 0 3593
2916 0 3655
3031 0 3717
3145 0 3779
3258 0 3841
3371 0 3904
3484 0 3967
3598 0 4031
3712 0 4095
3827 0 4095
1329 0 1124
1323 0 1164
1317 0 1204
1308 0 1247
1300 0 1288
1290 0 1329
1278 0 1368
1264 0 1406
1249 0 1442
1232 0 1477
1215 0 1510
1198 0 1543
1182 0 1575
1168 0 1606
1157 0 1638
1150 0 1671
1149 0 1704
1153 0 1739
1165 0 1774
1183 0 1811
1209 0 1848
1241 0 1887
1279 0 1926
1321 0 1966
1366 0 2007
1413 0 2049
1461 0 2092
1508 0 2137
1555 0 2183
1600 0 2230
1642 0 2278
1681 0 2327
1718 0 2377
1750 0 2428
1777 0 2479
1800 0 2532
1817 0 2586
1829 0 2640
1836 0 2695
1839 0 2748
1839 0 2797
1836 0 2849
1832 0 2903
1830 0 2958
1832 0 3014
1841 0 3070
1855 0 3126
1895 0 3180
1981 0 3235
2109 0 3288
2264 0 3345
2414 0 3411
2550 0 3472
2677 0 3533
2798 0 3593
2916 0 3655
3031 0 3717
3145 0 3779
3258 0 3841
3371 0 3904
3484 0 3967
3598 0 4031
3712 0 4095
3827 0 4095
1386 0 1159
1381 0 1196
1375 0 1235
1367 0 1276
1359 0 1316
1350 0 1355
1339 0 1394
1326 0 1432
1312 0 1468
1296 0 1502
1279 0 1535
1262 0 1567
1245 0 1598
1229 0 1628
1216 0 1659
1206 0 1689
1200 0 1721
1200 0 1753
1207 0 1787
1220 0 1821
1240 0 1857
1267 0 1894
1300 0 1932
1338 0 1971
1380 0 2011
1424 0 2052
1470 0 2095
1515 0 2139
1560 0 2184
1603 0 2231
1645 0 2279
1684 0 2328
1719 0 2377
1751 0 2428
1778 0 2480
1800 0 2533
1817 0 2586
1829 0 2640
1836 0 2695
1840 0 2748
1839 0 2797
1836 0 2849
1832 0 2903
1830 0 2958
1832 0 3014
1841 0 3070
1855 0 3126
1895 0 3180
1981 0 3235
2109 0 3288
2264 0 3345
2414 0 3411
2550 0 3472
2677 0 3533
2798 0 3593
2916 0 3655
3031 0 3717
3145 0 3779
3258 0 3841
3371 0 3904
3484 0 3967
3598 0 4031
3712 0 4095
3827 0 4095
1442 0 1194
1438 0 1229
1433 0 1266
1427 0 1304
1419 0 1343
1411 0 1382
1401 0 1420
1389 0 1457
1376 0 1492
1361 0 1527
1345 0 1560
1328 0 1591
1311 0 1621
1294 0 1651
1278 0 1680
1266 0 1709
1257 0 1739
1252 0 1769
1254 0 1801
1262 0 1834
1277 0 1868
1298 0 1903
1326 0 1939
1360 0 1977
1397 0 2016
1438 0 2056
1480 0 2098
1523 0 2142
1566 0 2187
1608 0 2233
1648 0 2280
1686 0 2329
1721 0 2378
1752 0 2429
1779 0 2481
1801 0 2533
1818 0 2586
1830 0 2641
1837 0 2695
1840 0 2748
1839 0 2797
1836 0 2849
1833 0 2903
1830 0 2958
1832 0 3014
1841 0 3070
1855 0 3126
1895 0 3180
1981 0 3235
2109 0 3288
2264 0 3345
2415 0 3411
2550 0 3472
2677 0 3533
2798 0 3593
2916 0 3655
3031 0 3717
3145 0 3779
3258 0 3841
3371 0 3904
3484 0 3967
3598 0 4031
3712 0 4095
3827 0 4095
1498 0 1231
1494 0 1263
1490 0 1297
1485 0 1333
1479 0 1369
1471 0 1407
1462 0 1444
1452 0 1481
1440 0 1516
1426 0 1551
1411 0 1583
1395 0 1615
1378 0 1645
1361 0 1674
1344 0 1702
1329 0 1730
1317 0 1758
1309 0 1787
1306 0 1817
1309 0 1848
1318 0 1880
1334 0 1913
1357 0 1948
1385 0 1984
1417 0 2022
1454 0 2061
1493 0 2102
1533 0 2145
1574 0 2189
1614 0 2235
1653 0 2282
1690 0 2330
1724 0 2380
1754 0 2430
1781 0 2481
1802 0 2534
1819 0 2587
1830 0 2641
1837 0 2696
1840 0 2748
1839 0 2797
1837 0 2849
1833 0 2903
1831 0 2958
1832 0 3014
1842 0 3070
1856 0 3126
1895 0 3180
1981 0 3235
2110 0 3288
2264 0 3345
2415 0 3411
2550 0 3472
2677 0 3533
2798 0 3593
2916 0 3655
3031 0 3717
3145 0 3779
3258 0 3841
3371 0 3904
3484 0 3967
3598 0 4031
3712 0 4095
3827 0 4095
1553 0 1268
1550 0 1297
1547 0 1329
1542 0 1362
1537 0 1396
1530 0 1432
1522 0 1469
1514 0 1504
1503 0 1540
1491 0 1574
1477 0 1607
1462 0 1638
1446 0 1668
1429 0 1697
1412 0 1725
1396 0 1752
1381 0 1779
1370 0 1806
1363 0 1834
1361 0 1863
1365 0 1894
1375 0 1925
1392 0 1958
1414 0 1993
1442 0 2029
1473 0 2067
1508 0 2107
1545 0 2149
1583 0 2193
1621 0 2238
1659 0 2284
1694 0 2332
1727 0 2381
1757 0 2431
1782 0 2482
1804 0 2534
1820 0 2587
1831 0 2641
1838 0 2696
1841 0 2747
1840 0 2797
1837 0 2849
1833 0 2903
1831 0 2958
1833 0 3014
1842 0 3070
1856 0 3126
1896 0 3180
1982 0 3235
2110 0 3288
2264 0 3345
2415 0 3411
2551 0 3472
2677 0 3533
2798 0 3593
2916 0 3655
3031 0 3717
3145 0 3779
3258 0 3841
3371 0 3904
3484 0 3967
3598 0 4031
3712 0 4095
3827 0 4095
1607 0 1307
1604 0 1333
1602 0 1361
1598 0 1392
1593 0 1424
1588 0 1458
1581 0 1493
1574 0 1527
1565 0 1562
1554 0 1596
1542 0 1629
1528 0 1660
1513 0 1690
1497 0 1719
1480 0 1747
1463 0 1774
1448 0 1800
1434 0 1827
1424 0 1853
1418 0 1881
1416 0 1909
1421 0 1939
1432 0 1970
1448 0 2003
1470 0 2038
1497 0 2075
1527 0 2114
1560 0 2154
1595 0 2197
1631 0 2241
1666 0 2287
1699 0 2334
1731 0 2383
1760 0 2433
1785 0 2483
1805 0 2535
1821 0 2588
1832 0 2642
1839 0 2697
1841 0 2747
1840 0 2797
1838 0 2849
1834 0 2903
1831 0 2958
1833 0 3014
1843 0 3070
1857 0 3126
1896 0 3180
1982 0 3235
2110 0 3288
2264 0 3345
2415 0 3411
2551 0 3472
2677 0 3533
2798 0 3593
2916 0 3655
3031 0 3717
3145 0 3779
3258 0 3841
3371 0 3904
3484 0 3967
3598 0 4031
3712 0 4095
3827 0 4095
1659 0 1348
1657 0 1370
1655 0 1396
1652 0 1423
1648 0 1453
1644 0 1484
1639 0 1517
1632 0 1550
1624 0 1584
1615 0 1617
1604 0 1650
1592 0 1682
1579 0 1712
1564 0 1741
1548 0 1769
1531 0 1796
1515 0 1822
1500 0 1847
1487 0 1873
1477 0 1899
1472 0 1926
1471 0 1954
1476 0 1984
1487 0 2015
1503 0 2048
1524 0 2084
1549 0 2121
1578 0 2161
1609 0 2202
1642 0 2246
1674 0 2291
1706 0 2337
1736 0 2385
1764 0 2435
1788 0 2485
1808 0 2537
1823 0 2589
1834 0 2643
1840 0 2697
1842 0 2747
1841 0 2797
1838 0 2849
1835 0 2903
1832 0 2958
1834 0 3014
1843 0 3070
1857 0 3126
1897 0 3180
1982 0 3235
2110 0 3288
2264 0 3345
2415 0 3411
2551 0 3472
2677 0 3533
2798 0 3593
2916 0 3655
3031 0 3717
3145 0 3779
3258 0 3841
3371 0 3904
3484 0 3967
3598 0 4031
3712 0 4095
3827 0 4095
1710 0 1390
1709 0 1409
1707 0 1431
1704 0 1456
1701 0 1482
1698 0 1511
1693 0 1542
1688 0 1573
1681 0 1606
1674 0 1638
1665 0 1671
1654 0 1702
1642 0 1733
1629 0 1762
1614 0 1790
1598 0 1817
1582 0 1843
1566 0 1869
1552 0 1894
1540 0 1919
1530 0 1945
1525 0 1971
1525 0 1999
1530 0 2029
1540 0 2060
1556 0 2094
1576 0 2130
1600 0 2169
1627 0 2209
1655 0 2251
1685 0 2295
1714 0 2341
1743 0 2388
1769 0 2437
1791 0 2487
1810 0 2538
1825 0 2590
1835 0 2644
1842 0 2698
1843 0 2747
1842 0 2797
1839 0 2849
1836 0 2903
1833 0 2958
1835 0 3014
1844 0 3070
1858 0 3126
1897 0 3180
1983 0 3235
2111 0 3288
2265 0 3345
2415 0 3411
2551 0 3472
2677 0 3533
2798 0 3593
2916 0 3655
3031 0 3717
3145 0 3779
3258 0 3841
3371 0 3904
3484 0 3967
3598 0 4031
3712 0 4095
3827 0 4095
1759 0 1434
1758 0 1450
1756 0 1469
1755 0 1490
1752 0 1514
1749 0 1540
1746 0 1567
1741 0 1597
1736 0 1627
1729 0 1659
1722 0 1691
1713 0 1722
1703 0 1752
1691 0 1782
1678 0 1810
1663 0 1838
1648 0 1864
1632 0 1890
1617 0 1915
1603 0 1939
1591 0 1964
1582 0 1990
1577 0 2016
1577 0 2044
1582 0 2074
1592 0 2107
1606 0 2141
1625 0 2178
1647 0 2217
1672 0 2258
1698 0 2301
1725 0 2345
1750 0 2392
1775 0 2440
1796 0 2489
1814 0 2540
1828 0 2592
1838 0 2645
1844 0 2699
1844 0 2747
1843 0 2797
1840 0 2849
1837 0 2903
1834 0 2958
1836 0 3014
1845 0 3070
1859 0 3126
1898 0 3180
1984 0 3235
2111 0 3288
2265 0 3345
2415 0 3411
2551 0 3472
2677 0 3533
2798 0 3593
2916 0 3655
3031 0 3717
3145 0 3779
3258 0 3841
3371 0 3904
3484 0 3967
3598 0 4031
3712 0 4095
3827 0 4095
1806 0 1478
1805 0 1492
1804 0 1508
1803 0 1526
